X:1
T:[ID 4-51r]
T:[ID 4-51r]
T:Bezeichnung standardisiert: Menuet [mit Trio] Menuet Con Trio 15. In dieser Quelle auch als: Menuetto
T:Urheber unbekannt Erstbeleg: 1767 (Datum in der schriftlichen Quelle) Datum in der hier transkribierten schriftlichen Quelle: 1775
C:Urheber unbekannt
C:Erstbeleg: 1767 (Datum in der schriftlichen Quelle)
C:Datum in der hier transkribierten schriftlichen Quelle: 1775
L:1/8
M:3/4
K:D
V:1 treble 
V:1
 A2 | FdFdFd | e4 GE | FdFdFd | c2 C2 C2 | FdFdFd | e4 GE | FGABGE | F4 :: de | f2 f2 gf | %11
 (fe)(ed) d2 | f2 f2 gf | (fe)(ed) d2 | FdFdFd | e4 GE | FGABGE | F4 :| %18
[M:3/4]"^Trio" !fermata!F4 A2 | d3 e f2 | d3 e f2 | fe d2 A2 | F4 A2 | d3 e f2 | (fe)(ed)(dc) | %25
 d2 c2 z2 :: d2 dAAF | F4 z2 | e2 eddc | c4 z2 | f2 f2 f2 | g3 f e2 | de d2 AG | F6 :| %34

